X: 433
T: Lament for Sarsfield
N:"Distinctly"
N:Irish title: mar.bna sairseul
B:O'Neill's 433
Z:Transcribed by henrik.norbeck@mailbox.swipnet.se
M:C
L:1/8
K:G
BA | G2 GG GG G2 | AAAB cBAB | G2 GG GBdg | fdcA B2 BA |
G2 GG G2 GG | ABcd cBAB | cdef g2 dc | B2 GG G2 z ||
d | defg edcB | defg e2 d>B | d>ege dBAG | B2 A>A A2 AB |
c2 cd ef g2 | B2 AG G3 B | cege d2 BG | A2 GG G2 ||


